X: 74
T: Danshui
L: 1/8
M: 2/4
K: G
e dB2 [I:setbarnb 1]| 
e dB2 | 
e d e g | 
d2d B | 
d d B d | 
e d B A | 
G3A | 
G2G2 | 
B2B B | 
B G e e | 
B B E d | 
G2G A | 
d3B | 
B F A F | 
E3F | 
E4 |]

@@@ Tune index: 8948
